assets/icons/ic_question.svg

<svg fill="none" height="14" viewBox="0 0 14 14" width="14" xmlns="http://www.w3.org/2000/svg"><path d="m6.52665 9.19331c-.02867.03168-.05539.06508-.08.1-.02523.03717-.04541.07752-.06.12-.01922.03779-.0327.07824-.04.12-.00327.04439-.00327.08895 0 .13334-.00225.08745.01601.17421.05333.25333.02994.08272.07771.15782.13993.22012.06221.0622.13734.1099.22007.1399.0798.0352.16609.0535.25334.0535.08724 0 .17353-.0183.25333-.0535.08273-.03.15786-.0777.22008-.1399.06221-.0623.10998-.1374.13992-.22012.0296-.08106.04319-.1671.04-.25333.00051-.08774-.01631-.17472-.04949-.25594-.03317-.08123-.08206-.1551-.14384-.2174-.06198-.06248-.13571-.11208-.21695-.14592-.08124-.03385-.16838-.05128-.25639-.05128s-.17514.01743-.25638.05128c-.08124.03384-.15498.08344-.21695.14592zm.47333-8.859997c-1.31854 0-2.60747.390993-3.7038 1.123537-1.09633.73254-1.95081 1.77373-2.455394 2.99191-.504584 1.21817-.636607 2.55861-.379372 3.85182s.892176 2.48112 1.824526 3.41342c.93235.9324 2.12023 1.5673 3.41344 1.8245 1.29321.2573 2.63365.1253 3.85183-.3793 1.21819-.5046 2.25939-1.3591 2.99189-2.4554.7326-1.09635 1.1235-2.38528 1.1235-3.70382 0-.87548-.1724-1.74239-.5074-2.55122-.3351-.80884-.8261-1.54377-1.4452-2.16283-.619-.61905-1.354-1.11012-2.16279-1.445147-.80884-.335032-1.67575-.50747-2.55123-.50747zm0 11.999987c-1.05483 0-2.08598-.3128-2.96304-.8988-.87706-.5861-1.56065-1.419-1.96431-2.39354-.40367-.97454-.50929-2.0469-.3035-3.08146.20579-1.03457.71374-1.98488 1.45962-2.73076s1.69619-1.25383 2.73075-1.45962c1.03457-.20578 2.10692-.10017 3.08146.3035s1.80754 1.08726 2.39354 1.96432.8988 1.90821.8988 2.96304c0 1.41449-.5619 2.77104-1.5621 3.77122-1.00017 1.0002-2.35673 1.5621-3.77122 1.5621zm0-8.66665c-.35129-.00023-.69644.09208-1.00072.26762-.30429.17555-.55697.42815-.73261.73238-.04824.07587-.08062.16073-.09522.24945-.01459.08872-.01109.17947.01031.2668.02139.08733.06022.16944.11417.24137.05394.07193.12188.13221.19972.17721.07784.04499.16399.07378.25324.08462.08926.01084.17979.00352.26614-.02154.08635-.02505.16674-.06731.23634-.12423.06959-.05693.12696-.12735.16863-.20702.05874-.10173.14332-.18614.24517-.24468.10185-.05853.21736-.08912.33483-.08865.17681 0 .34638.07024.47141.19526.12502.12503.19526.29459.19526.47141 0 .17681-.07024.34638-.19526.4714-.12503.12502-.2946.19526-.47141.19526s-.34638.07024-.4714.19526c-.12503.12503-.19526.2946-.19526.47141v.66667c0 .17681.07023.34638.19526.4714.12502.12502.29459.19526.4714.19526s.34638-.07024.47141-.19526c.12502-.12502.19526-.29459.19526-.4714v-.12c.44091-.15999.81157-.46985 1.04718-.87542.23561-.40558.32118-.88106.24175-1.34332-.07943-.46227-.3188-.88192-.67627-1.18559s-.8103-.47204-1.27933-.47567z" fill="#18a0fb"/></svg>

<svg width="14" height="14" viewBox="0 0 14 14" fill="none" xmlns="http://www.w3.org/2000/svg">
<path d="M6.52665 9.19331C6.49798 9.22499 6.47126 9.25839 6.44665 9.29331C6.42142 9.33048 6.40124 9.37083 6.38665 9.41331C6.36743 9.4511 6.35395 9.49155 6.34665 9.53331C6.34338 9.5777 6.34338 9.62226 6.34665 9.66665C6.3444 9.7541 6.36266 9.84086 6.39998 9.91998C6.42992 10.0027 6.47769 10.0778 6.53991 10.1401C6.60212 10.2023 6.67725 10.25 6.75998 10.28C6.83978 10.3152 6.92607 10.3335 7.01332 10.3335C7.10056 10.3335 7.18685 10.3152 7.26665 10.28C7.34938 10.25 7.42451 10.2023 7.48673 10.1401C7.54894 10.0778 7.59671 10.0027 7.62665 9.91998C7.65625 9.83892 7.66984 9.75288 7.66665 9.66665C7.66716 9.57891 7.65034 9.49193 7.61716 9.41071C7.58399 9.32948 7.5351 9.25561 7.47332 9.19331C7.41134 9.13083 7.33761 9.08123 7.25637 9.04739C7.17513 9.01354 7.08799 8.99611 6.99998 8.99611C6.91197 8.99611 6.82484 9.01354 6.7436 9.04739C6.66236 9.08123 6.58862 9.13083 6.52665 9.19331ZM6.99998 0.333313C5.68144 0.333313 4.39251 0.724306 3.29618 1.45685C2.19985 2.18939 1.34537 3.23058 0.840786 4.44876C0.336202 5.66693 0.204179 7.00737 0.461414 8.30058C0.718649 9.59379 1.35359 10.7817 2.28594 11.714C3.21829 12.6464 4.40617 13.2813 5.69938 13.5385C6.99259 13.7958 8.33303 13.6638 9.55121 13.1592C10.7694 12.6546 11.8106 11.8001 12.5431 10.7038C13.2757 9.60745 13.6666 8.31852 13.6666 6.99998C13.6666 6.1245 13.4942 5.25759 13.1592 4.44876C12.8241 3.63992 12.3331 2.90499 11.714 2.28593C11.095 1.66688 10.36 1.17581 9.55121 0.840783C8.74237 0.505751 7.87546 0.333313 6.99998 0.333313ZM6.99998 12.3333C5.94515 12.3333 4.914 12.0205 4.03694 11.4345C3.15988 10.8484 2.47629 10.0155 2.07263 9.04096C1.66896 8.06642 1.56334 6.99406 1.76913 5.9595C1.97492 4.92493 2.48287 3.97462 3.22875 3.22874C3.97463 2.48286 4.92494 1.97491 5.9595 1.76912C6.99407 1.56334 8.06642 1.66895 9.04096 2.07262C10.0155 2.47629 10.8485 3.15988 11.4345 4.03694C12.0205 4.914 12.3333 5.94515 12.3333 6.99998C12.3333 8.41447 11.7714 9.77102 10.7712 10.7712C9.77103 11.7714 8.41447 12.3333 6.99998 12.3333ZM6.99998 3.66665C6.64869 3.66642 6.30354 3.75873 5.99926 3.93427C5.69497 4.10982 5.44229 4.36242 5.26665 4.66665C5.21841 4.74252 5.18603 4.82738 5.17143 4.9161C5.15684 5.00482 5.16034 5.09557 5.18174 5.1829C5.20313 5.27023 5.24196 5.35234 5.29591 5.42427C5.34985 5.4962 5.41779 5.55648 5.49563 5.60148C5.57347 5.64647 5.65962 5.67526 5.74887 5.6861C5.83813 5.69694 5.92866 5.68962 6.01501 5.66456C6.10136 5.63951 6.18175 5.59725 6.25135 5.54033C6.32094 5.4834 6.37831 5.41298 6.41998 5.33331C6.47872 5.23158 6.5633 5.14717 6.66515 5.08863C6.767 5.0301 6.88251 4.99951 6.99998 4.99998C7.17679 4.99998 7.34636 5.07022 7.47139 5.19524C7.59641 5.32027 7.66665 5.48983 7.66665 5.66665C7.66665 5.84346 7.59641 6.01303 7.47139 6.13805C7.34636 6.26307 7.17679 6.33331 6.99998 6.33331C6.82317 6.33331 6.6536 6.40355 6.52858 6.52857C6.40355 6.6536 6.33332 6.82317 6.33332 6.99998V7.66665C6.33332 7.84346 6.40355 8.01303 6.52858 8.13805C6.6536 8.26307 6.82317 8.33331 6.99998 8.33331C7.17679 8.33331 7.34636 8.26307 7.47139 8.13805C7.59641 8.01303 7.66665 7.84346 7.66665 7.66665V7.54665C8.10756 7.38666 8.47822 7.0768 8.71383 6.67123C8.94944 6.26565 9.03501 5.79017 8.95558 5.32791C8.87615 4.86564 8.63678 4.44599 8.27931 4.14232C7.92184 3.83865 7.46901 3.67028 6.99998 3.66665Z" fill="#18A0FB"/>
</svg>
